teeny/solid/depth-chart.svg

<svg viewBox="0 0 15 15" xmlns="http://www.w3.org/2000/svg"><path d="M1 0H0v15h15V0h-1v5h-2v2h-1v3H9v2H8v-1H7V8H5V5H3V4H1V0Z"/></svg>

<svg width="15" height="15" viewBox="0 0 15 15" fill="none" xmlns="http://www.w3.org/2000/svg">
<path d="M1 0H0V15H15V0H14V5H12V7H11V10H9V12H8V11H7V8H5V5H3V4H1V0Z" fill="black"/>
</svg>
